WordPressTheme/assets/images/common/sub-info-tab-name-1.svg

<svg width="62" height="56" viewBox="0 0 62 56" fill="none" xmlns="http://www.w3.org/2000/svg">
<path d="M56.2616 25.3118C56.2551 25.005 56.1709 24.7049 56.0169 24.4395C55.584 23.6852 54.6315 23.2052 53.1881 23.0127C52.3529 22.9012 51.5676 22.7648 50.854 22.607C48.6667 22.1201 46.4252 21.9202 44.1861 22.0126C42.3024 22.0834 40.4237 22.2538 38.5579 22.5231C38.1626 22.5831 37.7035 22.6563 37.1945 22.7379C33.4148 23.3413 25.7248 24.5688 20.9483 23.6226C20.2995 22.3975 20.1877 21.3029 20.6165 20.3661C21.5475 18.3315 24.6997 17.3782 25.8409 17.094C27.1919 19.158 28.9092 20.4282 30.9493 20.8717C34.7439 21.6963 38.239 19.347 38.3861 19.2468C38.4983 19.1701 38.583 19.0594 38.6278 18.931C38.6725 18.8026 38.675 18.6632 38.6349 18.5333C38.5947 18.4034 38.5141 18.2897 38.4047 18.209C38.2953 18.1282 38.1629 18.0846 38.0269 18.0845C37.6821 18.0602 37.3494 17.9469 37.0614 17.7556C36.4261 17.3696 35.9065 16.8196 35.5573 16.1634C34.2569 13.7675 32.3798 12.8743 31.3016 12.5472C33.4961 7.29108 30.6428 3.8556 30.5142 3.70557L30.4967 3.68675C29.8086 2.94548 30.1956 1.60167 30.1991 1.59037C30.2352 1.47208 30.236 1.34585 30.2015 1.22709C30.167 1.10833 30.0987 1.00219 30.0049 0.921628C29.911 0.841062 29.7958 0.789557 29.6732 0.773402C29.5506 0.757247 29.4259 0.777141 29.3144 0.830654C26.2838 2.28138 24.4792 4.98407 24.0949 8.64618C23.9582 10.0364 24.0072 11.4386 24.2407 12.8158C22.7789 12.7177 21.3112 12.7492 19.8549 12.9099C19.2792 12.9664 8.35142 14.1379 3.50135 22.7747C1.36676 26.576 1.16723 31.1397 2.96714 34.9826C4.43537 38.1178 6.86267 40.5304 10.1848 42.1666C9.21385 43.1946 8.41667 44.3738 7.82455 45.658C5.76921 50.1108 1.42455 49.4575 1.24196 49.4276C1.10733 49.4048 0.968938 49.4259 0.84722 49.4878C0.725501 49.5497 0.626897 49.649 0.565958 49.7712C0.505019 49.8934 0.484971 50.032 0.508774 50.1664C0.532576 50.3009 0.598967 50.4241 0.698151 50.518C2.76347 52.4719 5.3982 53.6229 7.96046 53.4419C12.8222 53.0983 16.8017 48.8984 18.2859 47.091C18.8971 46.3367 19.5759 45.6398 20.3138 45.0089C20.3415 45.0117 20.3693 45.0126 20.3972 45.0117C23.4878 44.8147 27.4515 45.0287 27.4816 45.0306C27.5862 45.0379 27.6886 45.043 27.7929 45.0494C26.6089 45.8888 25.6304 46.9855 24.9308 48.2571C23.9081 50.0918 21.2879 53.923 17.2339 53.9503C17.9638 53.3989 18.5344 52.6638 18.8875 51.82C19.2406 50.9762 19.3636 50.0538 19.2438 49.1469C19.236 49.0627 19.2114 48.981 19.1716 48.9064C19.1318 48.8318 19.0776 48.7659 19.012 48.7125C18.9465 48.6591 18.871 48.6193 18.7899 48.5954C18.7088 48.5715 18.6238 48.564 18.5398 48.5733C18.4558 48.5826 18.3744 48.6085 18.3005 48.6496C18.2267 48.6906 18.1617 48.746 18.1094 48.8124C18.0571 48.8788 18.0186 48.955 17.9961 49.0365C17.9735 49.1179 17.9674 49.2031 17.9782 49.2869C18.0984 50.2371 17.8759 51.1991 17.3506 52C16.7819 52.8128 15.9494 53.4036 14.9944 53.6721C14.8551 53.7016 14.7297 53.777 14.6382 53.8862C14.5468 53.9955 14.4946 54.1322 14.49 54.2746C14.4855 54.4169 14.5288 54.5567 14.613 54.6716C14.6972 54.7865 14.8176 54.8698 14.9547 54.9082C15.6951 55.1195 16.4609 55.2284 17.2309 55.2318C21.9339 55.2318 24.8947 50.9374 26.0433 48.8764C26.7117 47.6507 27.6809 46.6151 28.8597 45.8671C29.3059 45.592 29.7741 45.3541 30.2594 45.1557C30.2669 45.1525 30.2731 45.1478 30.2805 45.1444C30.4796 45.1469 30.679 45.1497 30.8758 45.1497C43.7877 45.1497 51.5932 39.8119 54.4879 37.3671C55.1766 36.785 56.0488 36.4649 56.9506 36.4636H58.527C59.188 36.4725 59.8365 36.283 60.3887 35.9196C61.7926 34.9716 61.5977 33.4426 61.2518 32.6336C61.2758 31.6602 61.1211 27.0876 56.2616 25.3118ZM17.3018 46.2831C16.2262 47.5926 12.3686 51.8885 7.88046 52.1711C6.14568 52.2803 4.4766 51.779 2.89919 50.6791C4.71999 50.4636 7.43359 49.5441 8.98615 46.1803C9.00328 46.1412 10.7377 42.2496 13.4528 41.5708C13.6154 41.5287 13.7549 41.4241 13.8407 41.2797C13.9266 41.1354 13.9519 40.9629 13.9112 40.7999C13.8705 40.6369 13.767 40.4966 13.6233 40.4096C13.4796 40.3226 13.3074 40.2958 13.1441 40.3352C12.4552 40.5169 11.8074 40.8287 11.2358 41.2538C7.92752 39.7464 5.53222 37.4573 4.12046 34.4425C2.4941 30.9709 2.67782 26.8423 4.61175 23.3986C9.15669 15.3044 19.8776 14.1871 19.9853 14.1769C19.9881 14.1769 19.9906 14.1756 19.9934 14.1752C19.9962 14.1748 19.9989 14.1752 20.0015 14.1752C20.0286 14.172 22.7155 13.8541 24.9494 14.1735C25.0535 14.1883 25.1596 14.177 25.2583 14.1408C25.357 14.1046 25.4452 14.0446 25.515 13.966C25.5849 13.8875 25.6342 13.7929 25.6587 13.6907C25.6831 13.5884 25.6819 13.4818 25.6551 13.3801C25.3072 11.8602 25.2091 10.2938 25.3647 8.74237C25.664 5.97042 26.8239 3.90021 28.8179 2.57145C28.8168 3.29421 29.0768 3.99303 29.5501 4.53927C29.7329 4.76138 32.199 7.90247 29.8249 12.7166C29.7792 12.8093 29.7567 12.9117 29.7594 13.015C29.7621 13.1183 29.7899 13.2195 29.8405 13.3096C29.891 13.3998 29.9627 13.4763 30.0495 13.5325C30.1362 13.5887 30.2353 13.623 30.3382 13.6323C30.3635 13.6346 32.8758 13.8947 34.4388 16.7717C34.8974 17.6293 35.5787 18.3475 36.4109 18.8506C36.4177 18.8544 36.4245 18.8585 36.4312 18.8627C35.2053 19.4227 33.2241 20.0674 31.2118 19.6261C29.4048 19.2308 27.8816 18.0261 26.6852 16.0444C26.618 15.9334 26.5186 15.8455 26.4002 15.7925C26.2817 15.7395 26.1499 15.724 26.0224 15.7479C25.8131 15.7871 20.8751 16.7478 19.4601 19.8338C18.9895 20.8621 18.9609 21.9855 19.372 23.1862C18.7269 22.9634 18.1372 22.6045 17.6429 22.1338C17.2706 21.769 16.9879 21.3227 16.8173 20.8301C16.7916 20.7502 16.7504 20.6761 16.696 20.6122C16.6416 20.5483 16.5751 20.4958 16.5004 20.4577C16.4256 20.4195 16.344 20.3966 16.2604 20.3901C16.1767 20.3836 16.0925 20.3937 16.0128 20.4199C15.933 20.4461 15.8593 20.4877 15.7957 20.5425C15.7321 20.5973 15.68 20.6641 15.6423 20.7391C15.6046 20.8141 15.5822 20.8958 15.5762 20.9795C15.5702 21.0632 15.5809 21.1473 15.6075 21.2269C15.8387 21.9063 16.2248 22.5226 16.7354 23.027C20.3661 26.7151 31.4441 24.9459 37.3958 23.9955C37.9008 23.9147 38.3558 23.842 38.749 23.7826C40.5696 23.5202 42.4028 23.3542 44.2409 23.2852C46.3692 23.1973 48.4998 23.3871 50.579 23.8499C51.3276 24.0154 52.1487 24.1585 53.0195 24.2746C54.3494 24.4519 54.7115 24.7778 54.9865 25.3041C54.6874 25.4002 54.3786 25.4634 54.0657 25.4923C53.5587 25.5417 53.0476 25.5299 52.5434 25.4569C49.217 25.0393 45.8403 25.5757 42.807 27.0035C40.6957 28.0323 38.8402 29.5185 37.3752 31.3541C35.9925 33.0528 32.1423 37.0091 26.2724 37.056C26.1054 37.0594 25.9464 37.1284 25.8297 37.2479C25.7131 37.3675 25.6481 37.5281 25.6488 37.6952C25.6494 37.8622 25.7157 38.0223 25.8333 38.1409C25.9509 38.2596 26.1104 38.3273 26.2774 38.3294H26.2827C32.6934 38.2784 36.8664 33.9966 38.3627 32.1581C39.7094 30.4686 41.4154 29.1002 43.357 28.1523C46.1658 26.8292 49.2929 26.3321 52.3735 26.719C52.9794 26.8055 53.5935 26.8187 54.2025 26.7584C54.6837 26.7163 55.1564 26.6061 55.6066 26.4312C58.7159 27.4723 59.6322 29.7818 59.8904 31.2915C58.7844 30.5433 57.4877 30.1264 56.1528 30.0899H56.1453C49.0748 29.4737 43.1795 34.8696 42.7241 35.2979C37.4616 39.5341 28.8888 40.6061 28.8034 40.6166C28.791 40.6181 28.7782 40.6202 28.7657 40.6223L24.3262 41.4266C24.0875 41.4627 22.1626 41.811 19.5881 43.9533C18.7535 44.6552 17.9879 45.4354 17.3018 46.2831ZM53.6395 36.4171C51.9324 37.8292 50.0675 39.0386 48.0819 40.0212C48.6026 39.1843 49.0325 38.2942 49.3643 37.366C49.4224 37.2074 49.4151 37.0323 49.3441 36.8791C49.273 36.7259 49.1441 36.6072 48.9855 36.5491C48.907 36.5204 48.8236 36.5074 48.74 36.5108C48.6565 36.5143 48.5745 36.5342 48.4986 36.5694C48.3454 36.6404 48.2267 36.7694 48.1686 36.928C46.8886 40.4229 45.1921 41.2979 45.1495 41.3189C45.1439 41.3216 45.1394 41.3255 45.1339 41.3282C43.9656 41.7808 42.7743 42.1717 41.565 42.4994C42.335 41.5356 42.9169 40.4357 43.2804 39.2568C44.393 35.8466 45.5957 34.6908 45.7734 34.534C47.1531 33.5876 48.6427 32.8122 50.2095 32.2251C49.8226 32.7849 49.4897 33.3801 49.2152 34.0028C49.1785 34.0787 49.1577 34.1613 49.154 34.2455C49.1504 34.3297 49.1639 34.4138 49.1939 34.4926C49.2238 34.5713 49.2696 34.6432 49.3283 34.7037C49.387 34.7642 49.4574 34.8121 49.5352 34.8444C49.6912 34.8916 49.8584 34.8858 50.0107 34.8279C50.163 34.77 50.2918 34.6633 50.377 34.5244C51.4458 32.1457 52.6151 31.5953 52.8028 31.5196C53.8778 31.3226 54.9743 31.2697 56.0632 31.3622C56.0864 31.3643 56.1116 31.3649 56.1351 31.3647H56.1523C55.7537 32.0077 55.4547 32.7072 55.2653 33.4396C54.9511 34.5405 54.3957 35.5576 53.6395 36.4171ZM35.1829 43.6642C35.5771 43.2066 35.9 42.6922 36.1408 42.1383C36.1438 42.1312 36.147 42.1236 36.1498 42.1165C36.1562 42.1005 36.7697 40.5703 37.6369 39.6069C39.4831 38.8904 41.234 37.9491 42.8501 36.8043C42.5558 37.4764 42.2954 38.1629 42.07 38.8611C40.9395 42.3271 38.9001 43.0882 38.6872 43.1591C37.5765 43.3701 36.41 43.5427 35.1829 43.6647V43.6642ZM22.1852 43.6655C23.5795 42.8393 24.4868 42.691 24.5158 42.6867C24.5201 42.6867 24.524 42.6842 24.5284 42.6836C24.5327 42.6831 24.5389 42.6836 24.5444 42.6821L28.6065 41.9461C28.1982 42.6533 27.6401 43.2624 26.9713 43.7308C26.0371 43.6913 24.1314 43.6271 22.1852 43.666V43.6655ZM28.7923 43.8277C29.3689 43.2103 29.8236 42.4894 30.1325 41.7031C31.9818 41.3807 33.806 40.9278 35.5913 40.3478C35.3598 40.7652 35.1524 41.1954 34.9702 41.6365C34.3042 43.145 33.2331 43.6977 32.9372 43.8262C31.616 43.887 30.2351 43.8925 28.7919 43.8283L28.7923 43.8277ZM59.6762 34.8647C59.3345 35.0853 58.9347 35.1988 58.528 35.1906H56.9506C56.5991 35.1917 56.2487 35.2296 55.9051 35.3035C56.1497 34.8143 56.3467 34.3026 56.4932 33.7756C56.8508 32.4768 57.3526 31.8311 57.5714 31.5973C58.5281 31.8711 59.3934 32.3978 60.0759 33.122C60.1884 33.3852 60.5062 34.3045 59.6758 34.8653L59.6762 34.8647Z" fill="#408F95"/>
</svg>

<svg width="62" height="56" fill="none" xmlns="http://www.w3.org/2000/svg"><path d="M56.262 25.312a1.815 1.815 0 00-.245-.873c-.433-.754-1.386-1.234-2.829-1.426a28.136 28.136 0 01-2.334-.406 25.793 25.793 0 00-6.668-.594c-1.884.07-3.762.24-5.628.51-.395.06-.855.133-1.364.215-3.78.603-11.47 1.83-16.246.885-.649-1.226-.76-2.32-.332-3.257.931-2.035 4.084-2.988 5.225-3.272 1.35 2.064 3.068 3.334 5.108 3.778 3.795.824 7.29-1.525 7.437-1.625a.637.637 0 00-.36-1.163 1.999 1.999 0 01-.965-.328 4.137 4.137 0 01-1.504-1.593c-1.3-2.396-3.177-3.289-4.255-3.616 2.194-5.256-.66-8.691-.788-8.841l-.017-.02c-.688-.74-.301-2.084-.298-2.096a.636.636 0 00-.885-.76c-3.03 1.451-4.835 4.154-5.22 7.816a15.733 15.733 0 00.147 4.17 24.83 24.83 0 00-4.386.094c-.576.056-11.504 1.228-16.354 9.865-2.134 3.801-2.334 8.365-.534 12.208 1.468 3.135 3.896 5.547 7.218 7.184a13.03 13.03 0 00-2.36 3.491c-2.056 4.453-6.4 3.8-6.583 3.77a.636.636 0 00-.544 1.09c2.065 1.954 4.7 3.105 7.262 2.924 4.862-.344 8.842-4.544 10.326-6.351a15.954 15.954 0 012.028-2.082.627.627 0 00.083.003c3.09-.197 7.055.017 7.085.019l.31.018a9.611 9.611 0 00-2.861 3.208c-1.023 1.835-3.643 5.666-7.697 5.693a5.172 5.172 0 002.01-4.803.635.635 0 00-1.135-.335.635.635 0 00-.13.475c.12.95-.103 1.912-.628 2.713a4.294 4.294 0 01-2.357 1.672.637.637 0 00-.04 1.236 8.43 8.43 0 002.277.324c4.703 0 7.664-4.295 8.812-6.356a8.231 8.231 0 012.817-3.009 9.561 9.561 0 011.4-.711c.007-.003.013-.008.02-.012.2.003.399.006.596.006 12.912 0 20.717-5.338 23.612-7.783a3.824 3.824 0 012.463-.903h1.576a3.316 3.316 0 001.862-.544c1.404-.948 1.209-2.477.863-3.286.024-.974-.13-5.546-4.99-7.322zm-38.96 20.971c-1.076 1.31-4.933 5.605-9.422 5.888-1.734.11-3.403-.392-4.98-1.492 1.82-.215 4.534-1.135 6.086-4.499.017-.039 1.752-3.93 4.467-4.61a.637.637 0 00-.309-1.235 5.584 5.584 0 00-1.908.919c-3.308-1.508-5.704-3.797-7.116-6.811-1.626-3.472-1.442-7.6.492-11.044 4.545-8.095 15.266-9.212 15.373-9.222l.008-.002h.009c.027-.003 2.713-.32 4.947-.002a.637.637 0 00.706-.793 14.362 14.362 0 01-.29-4.638c.299-2.772 1.459-4.842 3.453-6.17a2.998 2.998 0 00.732 1.967c.183.222 2.649 3.363.275 8.178a.637.637 0 00.513.915c.025.003 2.538.263 4.1 3.14a5.41 5.41 0 001.993 2.09c-1.226.56-3.207 1.205-5.22.764-1.806-.395-3.33-1.6-4.526-3.582a.638.638 0 00-.663-.296c-.209.04-5.147 1-6.562 4.086-.47 1.028-.5 2.151-.088 3.352a4.761 4.761 0 01-1.73-1.052 3.369 3.369 0 01-.825-1.304.637.637 0 10-1.21.397c.232.68.618 1.296 1.128 1.8 3.631 3.688 14.71 1.919 20.66.968.506-.08.96-.153 1.354-.212a52.233 52.233 0 015.492-.498 24.515 24.515 0 016.338.565c.749.165 1.57.308 2.44.425 1.33.177 1.693.503 1.968 1.03a4.39 4.39 0 01-.921.187 6.336 6.336 0 01-1.523-.035 17.688 17.688 0 00-9.736 1.546 15.81 15.81 0 00-5.432 4.351c-1.383 1.699-5.233 5.655-11.103 5.702a.637.637 0 00.005 1.273h.006c6.41-.05 10.583-4.332 12.08-6.17a14.55 14.55 0 014.994-4.007 16.371 16.371 0 019.017-1.433c.605.086 1.22.1 1.828.04a5.106 5.106 0 001.405-.328c3.109 1.041 4.025 3.35 4.283 4.86a7.013 7.013 0 00-3.737-1.201h-.008c-7.07-.616-12.966 4.78-13.42 5.208-5.263 4.236-13.836 5.308-13.922 5.319a.838.838 0 00-.037.005l-4.44.805c-.239.036-2.163.384-4.738 2.526-.835.702-1.6 1.482-2.286 2.33zm36.337-9.866a28.667 28.667 0 01-5.557 3.604c.52-.837.95-1.727 1.282-2.655a.637.637 0 10-1.195-.438c-1.28 3.495-2.977 4.37-3.02 4.39a.065.065 0 01-.015.01 35.8 35.8 0 01-3.569 1.171 9.84 9.84 0 001.715-3.242c1.113-3.41 2.316-4.566 2.493-4.723a20.655 20.655 0 014.436-2.309c-.386.56-.72 1.155-.994 1.778a.62.62 0 00.32.841.737.737 0 00.842-.32c1.069-2.378 2.238-2.929 2.426-3.004a12.308 12.308 0 013.26-.158.748.748 0 00.072.003h.017a7.503 7.503 0 00-.887 2.075 7.712 7.712 0 01-1.626 2.977zm-18.456 7.247a6.008 6.008 0 00.967-1.547c.006-.017.62-1.547 1.487-2.51a24.109 24.109 0 005.213-2.803 21.906 21.906 0 00-.78 2.057c-1.13 3.466-3.17 4.227-3.383 4.298-1.11.211-2.277.384-3.504.506zm-12.998.002c1.395-.827 2.302-.975 2.33-.98l.013-.002c.005 0 .01 0 .016-.002l4.063-.736a5.593 5.593 0 01-1.636 1.785c-.934-.04-2.84-.104-4.786-.065zm6.607.162a6.704 6.704 0 001.34-2.125 39.778 39.778 0 005.46-1.355c-.232.417-.44.847-.622 1.288-.666 1.509-1.737 2.062-2.033 2.19a45.796 45.796 0 01-4.145.002zm30.884-8.963c-.342.22-.741.334-1.148.326h-1.577a5.047 5.047 0 00-1.046.112c.245-.489.442-1 .588-1.527.358-1.3.86-1.945 1.078-2.179.957.274 1.822.8 2.505 1.525.112.263.43 1.182-.4 1.743z" fill="#408F95"/></svg>
